icons/command-palette-24.svg

<svg xmlns="http://www.w3.org/2000/svg" width="24" height="24" viewBox="0 0 24 24"><path d="M3.045 18.894L9.94 12 3.045 5.106a.75.75 0 011.06-1.061l7.425 7.425a.75.75 0 010 1.06l-7.424 7.425a.75.75 0 01-1.061-1.06zm8.205.606a.75.75 0 000 1.5h9.5a.75.75 0 000-1.5h-9.5z"/></svg>

<svg xmlns="http://www.w3.org/2000/svg" width="24" height="24" viewBox="0 0 24 24">
  <defs/>
  <path d="M3.045,18.894 L9.94,12 L3.045,5.106 A0.75 0.75 0 0 1 4.105,4.045 L11.53,11.47 A0.75 0.75 0 0 1 11.53,12.53 L4.106,19.955 A0.75 0.75 0 0 1 3.045,18.895 Z M11.25,19.5 A0.75 0.75 0 0 0 11.25,21 L20.75,21 A0.75 0.75 0 0 0 20.75,19.5 L11.25,19.5 Z"/>
</svg>
